X:1
T:In Canaan Now
T:In Canaan Now
T:Arranged by John McPherson
T:E. T. Rinehart, 1891
T:Public Domain Courtesy of the Cyber Hymnal™
T:Public Domain Courtesy of the Cyber Hymnal™
C:Arranged by John McPherson
Z:Public Domain
Z:Courtesy of the Cyber Hymnal™
%%score ( 1 2 ) ( 3 4 )
L:1/8
Q:1/4=89
M:2/4
K:F
V:1 treble 
V:2 treble 
V:3 bass 
V:4 bass 
V:1
 C | (CC) [CF][CG] | [FA] [FA]2 [FA] | [FA][FA] [EB][FA] | [EG]3 C | C[CE] [EG][FA] | [GB]3 [GB] | %7
w: 1.~I|used~to * think that|Ca- naan Was|some- where up on|high, Where|I, per- haps, might|go When-|
w: 2.~A|land * of corn|and wine, Where|milk and hon- ey|flow, On|which the Lord doth|smile, As|
w: 3.~A|life * at peace|with God, With|Je- sus in my|soul, A|heart washed in the|blood, By|
w: 4.~This|rest, * it is|for you; Then|leave the wil- der-|ness, You’ll|find God’s word is|true, You’re|
 [Ac][GB] [FA][EG] | F3 (D/E/) | D[DE] [DF][EG] | ([FA] [FA]2) (F/E/) | D[DE] [DF][EG] | %12
w: e’er I came to|die. But *|wh- en~I came to|Jesus, * And *|at His cross did|
w: all who live there|know. I *|do the will of|God, * Be- *|cause He shows me|
w: Him made ful- ly|whole. From *|death to life di-|vine, * Each *|dark spot white as|
w: a- ble to pos-|sess, So *|put a- way the|things * That *|He doth not al-|
 [FA]3 [FA] | [FA][FA] [FA][FA] | [FA][FA] [FA][FA] | [FA]/[FA]/[FA] [FA][FA] | (BGE!fermata!C) || %17
w: bow, I|got sal- va- tion|thro’ the blood, I’m|liv- ing in Ca- naan|now. * * *|
w: how, I|stand where good and|Josh- ua stood, I’m|liv- ing in Ca- naan|now. * * *|
w: snow, He|speaks the word, and|it is done, I’m|liv- ing in Ca- naan|now. * * *|
w: low; And|if your all to|Christ you bring, You’re|liv- ing in Ca- naan|now. * * *|
"^Refrain" C/C/C [CF][CG] | [FA]3 [FA] | [FA]/[FA]/[FA] [EB][FA] | [EG]3 C | [EG][EG] [EG][FA] | %22
w: |||||
w: |||||
w: |||||
w: |||||
 [GB][GB] [GB]!fermata![GB] | [Ac]/[Ac]/[GB] [FA][EG] | F3 |] %25
w: |||
w: |||
w: |||
w: |||
V:2
 C | CC x2 | x4 | x4 | x3 C | C x3 | x4 | x4 | F3 B, | D x3 | x3 D | D x3 | x4 | x4 | x4 | x4 | %16
 E2 C2 || C/C/C x2 | x4 | x4 | x3 C | x4 | x4 | x4 | F3 |] %25
V:3
 [F,A,] | ([F,A,][F,A,]) [F,A,][F,B,] | [F,C] [F,C]2 [F,C] | [F,C][F,C] [G,C][F,C] | %4
w: ||||
 [C,C]3 [C,E,] | [C,E,][C,G,] [C,C][C,C] | [C,C]3 [C,C] | [C,C][C,C] [C,C][C,B,] | %8
w: ||||
 [F,A,]3 (A,/G,/) | [D,F,][D,G,] [D,A,][A,,A,] | ([D,A,] [D,A,]2) (A,/G,/) | %11
w: |||
 [D,F,][D,G,] [D,A,][A,,A,] | [D,A,]3 [D,A,] | [D,A,][D,A,] [D,A,][D,A,] | %14
w: |||
 [D,A,][D,A,] [D,A,][D,A,] | [D,A,]/[D,A,]/[D,A,] [D,A,][D,A,] | (!fermata!C2 !fermata!B,2) || %17
w: |||
 [F,A,]/[F,A,]/[F,A,] [F,A,][F,B,] | [F,C]3 [F,C] | [F,C]/[F,C]/[F,C] [G,C][F,C] | [C,C]3 [C,C] | %21
w: Liv- ing in Ca- naan|now, I’m|liv- ing in Ca- naan|now; I’m|
 [C,C][C,C] [C,C][C,C] | [C,C][C,C] [C,C]!fermata![C,C] | [C,C]/[C,C]/[C,C] [C,C][C,B,] | %24
w: do- ing well, I’m|glad to tell, I’m|liv- ing in Ca- naan|
 [F,A,]3 |] %25
w: now.|
V:4
 x | x4 | x4 | x4 | x4 | x4 | x4 | x4 | x3 D, | x4 | x3 D, | x4 | x4 | x4 | x4 | x4 | C,4 || x4 | %18
 x4 | x4 | x4 | x4 | x4 | x4 | x3 |] %25

